X:1870
L:1/8
M:4/4
K:Amin
"Am" A3 A BAGA | B2 A2 A2 ed |"^G/(Em)" B2 AB"G" dedB | d2 G2 G2 BG |"^Am/(D)" A3 A BAGA | 
 B2 A2 A2 ed |"^G/(D)" B2 AB"^(Em)" dedB |1"^Am/(G)" e2 A2"^(Am)" A2 BG :|2 
"^Am/(G)" e2 A2"^(Am)" A2 Bd |"Am" e2 de g2 eg | a2 ea"^G/(C)" g4 | e2 de g2 ^fg | ed BA GA Bd | 
"Am" e2 de g2 eg | a2 ea"^G/(C)" g4 | ge ^fd ge dB |"Am" e2 A2 A2 Bd |"Am" e2 de g2 eg | 
 a2 ea"^G/(C)" g4 | e2 de g2 ^fg | ed BA GA BG |"C" c2 Bc"^D/D5" d2 cd |"G" e2 de"^D/D5" a4 | 
 ge ^fd ge dB |"Am" e2 A2 A4 ||

